assets/images/sample-logo-dark.svg

<svg width="140" height="30" viewBox="0 0 140 30" fill="none" xmlns="http://www.w3.org/2000/svg">
<path d="M22.42 13.3709C22.0408 13.7521 21.7504 14.2122 21.5695 14.7185C21.3885 15.2247 21.3214 15.7647 21.373 16.2999L21.355 16.2819C21.4082 16.9117 21.3232 17.5456 21.1061 18.1392C20.889 18.7329 20.545 19.272 20.0981 19.7189C19.6511 20.1659 19.112 20.5099 18.5183 20.727C17.9247 20.9441 17.2908 21.029 16.661 20.9759L16.679 20.9939C15.9253 20.9235 15.1683 21.0874 14.5111 21.4631C13.854 21.8388 13.3288 22.4081 13.007 23.0933C12.6853 23.7785 12.5828 24.5462 12.7134 25.2918C12.844 26.0374 13.2014 26.7246 13.7369 27.2596C14.2724 27.7946 14.9599 28.1514 15.7056 28.2813C16.4513 28.4113 17.219 28.308 17.9039 27.9857C18.5888 27.6634 19.1576 27.1376 19.5327 26.4801C19.9078 25.8227 20.071 25.0655 20 24.3119L20.019 24.3299C19.9658 23.7 20.0507 23.0661 20.2678 22.4725C20.4849 21.8789 20.829 21.3397 21.2759 20.8928C21.7229 20.4458 22.262 20.1018 22.8556 19.8847C23.4493 19.6676 24.0831 19.5827 24.713 19.6359L24.694 19.6179C25.6203 19.6956 26.5416 19.4191 27.272 18.8441C28.0024 18.2692 28.4876 17.4387 28.6297 16.5201C28.7718 15.6015 28.5603 14.6631 28.0377 13.8944C27.5151 13.1256 26.7205 12.5837 25.814 12.3779C25.2107 12.2447 24.5836 12.2658 23.9907 12.4394C23.3977 12.613 22.8582 12.9334 22.422 13.3709H22.42Z" fill="black"/>
<path d="M15.0422 18.6362L15.0232 18.6182C15.5585 18.672 16.099 18.6062 16.6058 18.4255C17.1125 18.2448 17.5728 17.9539 17.9533 17.5736C18.3339 17.1933 18.6252 16.7333 18.8063 16.2267C18.9873 15.7201 19.0535 15.1796 19.0002 14.6442L19.0202 14.6622C18.9672 14.0325 19.0522 13.3988 19.2693 12.8053C19.4864 12.2119 19.8304 11.6729 20.2772 11.226C20.724 10.7791 21.2629 10.435 21.8563 10.2178C22.4498 10.0006 23.0835 9.91541 23.7132 9.96824L23.6942 9.95024C24.4477 10.021 25.2046 9.85761 25.8618 9.48234C26.519 9.10708 27.0445 8.53822 27.3665 7.85335C27.6885 7.16848 27.7914 6.40095 27.6612 5.65544C27.531 4.90994 27.1739 4.22275 26.6388 3.68762C26.1037 3.15248 25.4165 2.79545 24.671 2.66522C23.9255 2.53499 23.1579 2.6379 22.4731 2.95992C21.7882 3.28194 21.2193 3.80739 20.8441 4.46459C20.4688 5.1218 20.3054 5.87876 20.3762 6.63224L20.3582 6.61324C20.4114 7.24309 20.3264 7.87696 20.1093 8.4706C19.8922 9.06424 19.5482 9.60335 19.1012 10.0503C18.6543 10.4973 18.1152 10.8413 17.5215 11.0584C16.9279 11.2755 16.294 11.3604 15.6642 11.3072L15.6822 11.3262C15.1469 11.2725 14.6063 11.3383 14.0996 11.519C13.5929 11.6996 13.1326 11.9906 12.752 12.3709C12.3715 12.7512 12.0802 13.2112 11.8991 13.7178C11.7181 14.2244 11.6518 14.7649 11.7052 15.3002L11.6872 15.2822C11.74 15.912 11.6548 16.5457 11.4376 17.1392C11.2204 17.7327 10.8764 18.2717 10.4295 18.7185C9.98259 19.1654 9.44363 19.5095 8.85015 19.7267C8.25667 19.9439 7.62296 20.0291 6.99318 19.9762L7.01118 19.9942C6.25796 19.9237 5.50131 20.0872 4.84441 20.4624C4.18751 20.8376 3.66233 21.4064 3.34051 22.091C3.01869 22.7757 2.91588 23.5429 3.0461 24.2882C3.17632 25.0334 3.53324 25.7203 4.06818 26.2552C4.60312 26.7902 5.29004 27.1471 6.03527 27.2773C6.7805 27.4076 7.54776 27.3047 8.23241 26.9829C8.91707 26.6611 9.48579 26.1359 9.86103 25.479C10.2363 24.8221 10.3997 24.0655 10.3292 23.3122L10.3492 23.3302C10.296 22.7005 10.3809 22.0667 10.598 21.4731C10.815 20.8796 11.159 20.3405 11.6058 19.8936C12.0526 19.4466 12.5916 19.1026 13.1851 18.8854C13.7787 18.6683 14.4124 18.5832 15.0422 18.6362Z" fill="black"/>
<path d="M8.34021 16.6289C8.71937 16.2476 9.00963 15.7873 9.19028 15.2808C9.37092 14.7743 9.43748 14.2341 9.38521 13.6989L9.40521 13.7179C9.35202 13.088 9.43697 12.454 9.65412 11.8603C9.87127 11.2666 10.2154 10.7274 10.6625 10.2805C11.1095 9.83349 11.6488 9.48948 12.2425 9.27246C12.8363 9.05543 13.4703 8.97062 14.1002 9.02394L14.0812 9.00594C14.8344 9.07651 15.5911 8.91302 16.248 8.53778C16.9049 8.16255 17.4301 7.59382 17.7519 6.90917C18.0737 6.22451 18.1765 5.45726 18.0463 4.71203C17.9161 3.9668 17.5592 3.27988 17.0242 2.74494C16.4893 2.21 15.8023 1.85308 15.0571 1.72286C14.3119 1.59263 13.5446 1.69544 12.86 2.01727C12.1753 2.33909 11.6066 2.86426 11.2314 3.52116C10.8561 4.17807 10.6926 4.93472 10.7632 5.68794L10.7452 5.66994C10.7986 6.29983 10.7137 6.93378 10.4967 7.5275C10.2797 8.12122 9.93566 8.6604 9.48866 9.1074C9.04167 9.55439 8.50248 9.89842 7.90876 10.1154C7.31504 10.3325 6.6811 10.4173 6.05121 10.3639L6.06921 10.3819C5.45378 10.3268 4.83438 10.4278 4.26839 10.6757C3.70241 10.9236 3.20817 11.3104 2.83146 11.8002C2.45475 12.29 2.20776 12.8669 2.11339 13.4776C2.01901 14.0882 2.0803 14.7128 2.29157 15.2935C2.50285 15.8741 2.85727 16.3921 3.322 16.7993C3.78673 17.2065 4.34673 17.4898 4.95011 17.623C5.55349 17.7562 6.18072 17.7349 6.77368 17.5611C7.36664 17.3874 7.90615 17.0667 8.34221 16.6289H8.34021ZM39.3172 6.65494H42.2872V21.1079H39.3172V6.65494ZM43.9692 16.1599C43.9647 15.121 44.2686 14.104 44.8425 13.238C45.4165 12.3719 46.2345 11.6957 47.1931 11.295C48.1517 10.8942 49.2077 10.7871 50.2272 10.9871C51.2468 11.187 52.184 11.6851 52.9202 12.4183C53.6565 13.1514 54.1585 14.0865 54.3627 15.1052C54.567 16.1239 54.4643 17.1803 54.0676 18.1406C53.6709 19.1009 52.9981 19.9218 52.1345 20.4994C51.2708 21.0769 50.2552 21.3851 49.2162 21.3849C48.5267 21.3929 47.8425 21.2634 47.2037 21.0038C46.5649 20.7443 45.9842 20.36 45.4957 19.8734C45.0071 19.3868 44.6205 18.8077 44.3584 18.1699C44.0963 17.5321 43.964 16.8495 43.9692 16.1599ZM51.4932 16.1599C51.4812 15.7119 51.3374 15.2774 51.0797 14.9106C50.822 14.5439 50.4619 14.2613 50.0444 14.0982C49.627 13.9351 49.1707 13.8987 48.7326 13.9936C48.2946 14.0884 47.8943 14.3104 47.5817 14.6316C47.2691 14.9528 47.0582 15.3591 46.9753 15.7995C46.8925 16.24 46.9413 16.6951 47.1157 17.108C47.2902 17.5208 47.5825 17.8731 47.9561 18.1207C48.3297 18.3682 48.768 18.5002 49.2162 18.4999C49.5228 18.5081 49.8278 18.4527 50.112 18.3372C50.3962 18.2216 50.6533 18.0485 50.8672 17.8286C51.0811 17.6088 51.2472 17.347 51.3549 17.0598C51.4627 16.7726 51.5098 16.4662 51.4932 16.1599ZM66.3002 11.2099V20.6099C66.3002 23.9349 63.7062 25.3409 61.0732 25.3409C60.1462 25.4102 59.218 25.2229 58.3903 24.7996C57.5627 24.3762 56.8676 23.7332 56.3812 22.9409L58.9152 21.4759C59.1197 21.8889 59.4454 22.2295 59.8487 22.4523C60.2521 22.6752 60.7138 22.7696 61.1722 22.7229C61.4652 22.7635 61.7636 22.7377 62.0453 22.6474C62.3269 22.5572 62.5847 22.4047 62.7995 22.2013C63.0143 21.998 63.1806 21.7489 63.2862 21.4726C63.3917 21.1962 63.4337 20.8997 63.4092 20.6049V19.6999C63.0614 20.1255 62.6188 20.4636 62.1167 20.6871C61.6146 20.9106 61.0671 21.0133 60.5182 20.9869C59.2058 20.9549 57.958 20.411 57.0411 19.4715C56.1243 18.532 55.611 17.2712 55.611 15.9584C55.611 14.6457 56.1243 13.3849 57.0411 12.4454C57.958 11.5059 59.2058 10.962 60.5182 10.9299C61.067 10.9038 61.6142 11.0067 62.1161 11.2301C62.618 11.4536 63.0605 11.7916 63.4082 12.2169V11.2069L66.3002 11.2089V11.2099ZM63.4102 15.9599C63.4302 15.4813 63.3064 15.0076 63.0549 14.5999C62.8034 14.1922 62.4356 13.8691 61.9989 13.6721C61.5622 13.4752 61.0766 13.4134 60.6045 13.4948C60.1324 13.5763 59.6954 13.7971 59.3499 14.1289C59.0044 14.4607 58.7661 14.8884 58.6656 15.3568C58.5652 15.8252 58.6072 16.3129 58.7864 16.7573C58.9655 17.2016 59.2734 17.5821 59.6707 17.8499C60.0679 18.1177 60.5361 18.2605 61.0152 18.2599C61.3273 18.2817 61.6404 18.2379 61.9345 18.1313C62.2286 18.0247 62.4971 17.8577 62.7227 17.641C62.9483 17.4243 63.1261 17.1628 63.2445 16.8733C63.3629 16.5837 63.4193 16.2726 63.4102 15.9599ZM67.9832 16.1599C67.9789 15.1213 68.2829 14.1046 68.8568 13.2389C69.4307 12.3731 70.2486 11.6972 71.207 11.2967C72.1653 10.8962 73.221 10.7891 74.2403 10.9891C75.2596 11.1891 76.1965 11.687 76.9325 12.42C77.6686 13.1529 78.1705 14.0878 78.3747 15.1062C78.579 16.1246 78.4764 17.1807 78.0799 18.1408C77.6834 19.1008 77.0109 19.9216 76.1476 20.4991C75.2842 21.0766 74.2689 21.3849 73.2302 21.3849C72.5407 21.3929 71.8565 21.2634 71.2177 21.0038C70.5789 20.7443 69.9982 20.36 69.5097 19.8734C69.0211 19.3868 68.6345 18.8077 68.3724 18.1699C68.1103 17.5321 67.978 16.8495 67.9832 16.1599ZM75.5072 16.1599C75.4952 15.7119 75.3514 15.2774 75.0937 14.9106C74.836 14.5439 74.4759 14.2613 74.0584 14.0982C73.641 13.9351 73.1847 13.8987 72.7466 13.9936C72.3086 14.0884 71.9083 14.3104 71.5957 14.6316C71.2831 14.9528 71.0722 15.3591 70.9893 15.7995C70.9064 16.24 70.9553 16.6951 71.1297 17.108C71.3042 17.5208 71.5965 17.8731 71.9701 18.1207C72.3437 18.3682 72.782 18.5002 73.2302 18.4999C73.5369 18.5083 73.842 18.453 74.1262 18.3375C74.4104 18.222 74.6676 18.0488 74.8815 17.829C75.0955 17.6091 75.2616 17.3473 75.3692 17.06C75.4769 16.7727 75.5239 16.4663 75.5072 16.1599ZM79.8612 8.55594C79.8612 8.2035 79.9657 7.85896 80.1615 7.56592C80.3573 7.27287 80.6356 7.04446 80.9613 6.90959C81.2869 6.77471 81.6452 6.73942 81.9909 6.80818C82.3365 6.87694 82.654 7.04666 82.9033 7.29588C83.1525 7.54509 83.3222 7.86262 83.391 8.20829C83.4597 8.55397 83.4244 8.91227 83.2896 9.23788C83.1547 9.5635 82.9263 9.84181 82.6332 10.0376C82.3402 10.2334 81.9957 10.3379 81.6432 10.3379C81.172 10.3333 80.7215 10.144 80.3883 9.81082C80.0551 9.47764 79.8659 9.0271 79.8612 8.55594ZM80.1612 11.2089H83.1322V21.1089H80.1572L80.1612 11.2089ZM95.9562 16.1589C95.9907 16.8133 95.8954 17.4679 95.6759 18.0853C95.4564 18.7026 95.117 19.2705 94.6772 19.7562C94.2374 20.2419 93.7059 20.6358 93.1133 20.9154C92.5207 21.1949 91.8787 21.3545 91.2242 21.3849C90.6737 21.4151 90.1233 21.3223 89.6131 21.1133C89.1029 20.9044 88.6455 20.5845 88.2742 20.1769V25.0679H85.3042V11.2089H88.2742V12.1389C88.6456 11.7316 89.103 11.4119 89.6133 11.2032C90.1235 10.9944 90.6738 10.9018 91.2242 10.9319C91.8788 10.9624 92.5209 11.122 93.1136 11.4016C93.7063 11.6812 94.2378 12.0752 94.6776 12.561C95.1174 13.0468 95.4568 13.6148 95.6762 14.2323C95.8956 14.8498 95.9908 15.5045 95.9562 16.1589ZM92.9862 16.1589C92.9746 15.6956 92.8266 15.246 92.5607 14.8664C92.2948 14.4868 91.9229 14.194 91.4914 14.0247C91.06 13.8554 90.5882 13.8172 90.1351 13.9147C89.682 14.0123 89.2678 14.2413 88.9442 14.5731C88.6206 14.9049 88.4021 15.3248 88.316 15.7802C88.2299 16.2356 88.28 16.7063 88.46 17.1333C88.6401 17.5604 88.9422 17.9249 89.3284 18.1811C89.7145 18.4373 90.1677 18.574 90.6312 18.5739C90.9494 18.5881 91.267 18.5348 91.5631 18.4177C91.8593 18.3005 92.1274 18.122 92.3497 17.894C92.5721 17.666 92.7437 17.3935 92.8534 17.0945C92.9631 16.7955 93.0084 16.4767 92.9862 16.1589ZM105.121 18.1379C105.121 20.4149 103.142 21.3849 101.004 21.3849C100.14 21.4633 99.2728 21.2807 98.5139 20.8607C97.755 20.4406 97.1395 19.8026 96.7472 19.0289L99.3202 17.5639C99.4243 17.9215 99.6479 18.2325 99.9536 18.4451C100.259 18.6577 100.629 18.7589 101 18.7319C101.712 18.7319 102.069 18.5139 102.069 18.1189C102.069 17.0289 97.1992 17.6039 97.1992 14.1789C97.1992 12.0199 99.0202 10.9319 101.079 10.9319C101.853 10.9073 102.62 11.0909 103.299 11.4634C103.978 11.836 104.544 12.3839 104.939 13.0499L102.405 14.4159C102.294 14.1567 102.109 13.9359 101.873 13.7811C101.637 13.6264 101.361 13.5446 101.079 13.5459C100.564 13.5459 100.247 13.7459 100.247 14.0989C100.251 15.2289 105.121 14.4739 105.121 18.1379ZM115.97 11.2089V21.1089H113V20.1779C112.657 20.5885 112.222 20.912 111.73 21.122C111.238 21.3319 110.704 21.4224 110.17 21.3859C108.17 21.3859 106.47 19.9609 106.47 17.2859V11.2089H109.44V16.8509C109.415 17.0869 109.441 17.3256 109.518 17.5502C109.595 17.7748 109.72 17.9799 109.884 18.1509C110.048 18.3221 110.247 18.4555 110.468 18.5419C110.689 18.6282 110.926 18.6655 111.162 18.6509C112.251 18.6509 113.003 18.0179 113.003 16.6119V11.2119L115.97 11.2089ZM133 15.0299V21.1079H130.03V15.2869C130.03 14.2969 129.555 13.6639 128.605 13.6639C127.615 13.6639 127.06 14.3569 127.06 15.5249V21.1079H124.091V15.2869C124.091 14.2969 123.616 13.6639 122.665 13.6639C121.675 13.6639 121.121 14.3569 121.121 15.5249V21.1079H118.151V11.2079H121.121V12.1179C121.429 11.7144 121.833 11.3944 122.297 11.1871C122.76 10.9798 123.268 10.8917 123.774 10.9309C124.282 10.9064 124.788 11.0137 125.243 11.2426C125.697 11.4715 126.084 11.814 126.367 12.2369C126.696 11.7942 127.132 11.4422 127.634 11.2137C128.136 10.9853 128.688 10.888 129.238 10.9309C131.511 10.9319 133 12.5549 133 15.0299ZM135.512 11.1479C136.097 11.1479 136.657 10.9157 137.071 10.5024C137.484 10.0891 137.716 9.52848 137.716 8.94394C137.716 8.3594 137.484 7.79881 137.071 7.38548C136.657 6.97215 136.097 6.73994 135.512 6.73994C134.928 6.73994 134.367 6.97215 133.954 7.38548C133.54 7.79881 133.308 8.3594 133.308 8.94394C133.308 9.52848 133.54 10.0891 133.954 10.5024C134.367 10.9157 134.928 11.1479 135.512 11.1479Z" fill="black"/>
</svg>

<svg width="140" height="30" fill="none" xmlns="http://www.w3.org/2000/svg"><path d="M22.42 13.37a3.654 3.654 0 0 0-1.047 2.93l-.018-.018a4.343 4.343 0 0 1-4.694 4.694l.018.018A3.679 3.679 0 1 0 20 24.312l.019.018a4.343 4.343 0 0 1 4.694-4.694l-.019-.018a3.672 3.672 0 0 0 1.12-7.24 3.672 3.672 0 0 0-3.392.993h-.002Z" fill="#000"/><path d="m15.042 18.636-.019-.018A3.63 3.63 0 0 0 19 14.644l.02.018a4.345 4.345 0 0 1 4.693-4.694l-.019-.018a3.678 3.678 0 1 0-3.318-3.318l-.018-.019a4.343 4.343 0 0 1-4.694 4.694l.018.02a3.632 3.632 0 0 0-3.977 3.973l-.018-.018a4.347 4.347 0 0 1-4.694 4.694l.018.018a3.678 3.678 0 1 0 3.318 3.318l.02.018a4.342 4.342 0 0 1 4.693-4.694Z" fill="#000"/><path d="M8.34 16.629a3.652 3.652 0 0 0 1.045-2.93l.02.019A4.344 4.344 0 0 1 14.1 9.024l-.019-.018a3.677 3.677 0 1 0-3.318-3.318l-.018-.018a4.343 4.343 0 0 1-4.694 4.694l.018.018a3.672 3.672 0 0 0-2.747 6.417 3.671 3.671 0 0 0 5.02-.17H8.34Zm30.977-9.974h2.97v14.453h-2.97V6.655Zm4.652 9.505a5.248 5.248 0 1 1 5.247 5.225 5.186 5.186 0 0 1-5.247-5.225Zm7.524 0a2.28 2.28 0 1 0-2.277 2.34 2.222 2.222 0 0 0 2.277-2.34ZM66.3 11.21v9.4c0 3.325-2.594 4.73-5.227 4.73a5.063 5.063 0 0 1-4.692-2.4l2.534-1.464a2.262 2.262 0 0 0 2.257 1.247 1.973 1.973 0 0 0 2.237-2.118V19.7a3.515 3.515 0 0 1-2.89 1.287 5.03 5.03 0 0 1 0-10.057 3.518 3.518 0 0 1 2.89 1.287v-1.01l2.891.002Zm-2.89 4.75a2.4 2.4 0 1 0-2.395 2.3 2.24 2.24 0 0 0 2.395-2.3Zm4.573.2a5.247 5.247 0 1 1 5.247 5.225 5.186 5.186 0 0 1-5.247-5.225Zm7.524 0a2.28 2.28 0 1 0-2.277 2.34 2.219 2.219 0 0 0 2.277-2.34Zm4.354-7.604a1.782 1.782 0 1 1 1.782 1.782 1.8 1.8 0 0 1-1.782-1.782Zm.3 2.653h2.971v9.9h-2.975l.004-9.9Zm15.795 4.95a4.97 4.97 0 0 1-4.732 5.226 3.714 3.714 0 0 1-2.95-1.208v4.89h-2.97V11.21h2.97v.93a3.716 3.716 0 0 1 2.95-1.207 4.97 4.97 0 0 1 4.732 5.227Zm-2.97 0a2.356 2.356 0 1 0-2.355 2.415 2.26 2.26 0 0 0 2.355-2.415Zm12.135 1.979c0 2.277-1.979 3.247-4.117 3.247a4.333 4.333 0 0 1-4.257-2.356l2.573-1.465a1.627 1.627 0 0 0 1.68 1.168c.712 0 1.069-.218 1.069-.613 0-1.09-4.87-.515-4.87-3.94 0-2.16 1.821-3.247 3.88-3.247a4.33 4.33 0 0 1 3.86 2.118l-2.534 1.366a1.435 1.435 0 0 0-1.326-.87c-.515 0-.832.2-.832.553.004 1.13 4.874.375 4.874 4.039Zm10.849-6.93v9.9H113v-.93a3.387 3.387 0 0 1-2.83 1.208c-2 0-3.7-1.425-3.7-4.1v-6.077h2.97v5.642a1.627 1.627 0 0 0 1.028 1.69c.221.087.458.125.694.11 1.089 0 1.841-.633 1.841-2.04v-5.4l2.967-.002ZM133 15.03v6.078h-2.97v-5.821c0-.99-.475-1.623-1.425-1.623-.99 0-1.545.693-1.545 1.86v5.584h-2.969v-5.821c0-.99-.475-1.623-1.426-1.623-.99 0-1.544.693-1.544 1.86v5.584h-2.97v-9.9h2.97v.91a3.038 3.038 0 0 1 2.653-1.187 2.952 2.952 0 0 1 2.593 1.306 3.263 3.263 0 0 1 2.871-1.306c2.273 0 3.762 1.624 3.762 4.099Zm2.512-3.882a2.206 2.206 0 0 0 1.559-3.763 2.206 2.206 0 0 0-3.763 1.559 2.202 2.202 0 0 0 2.204 2.204Z" fill="#000"/></svg>
